X:83
T:Do so In a Meraca (America). GS.083
T:East Neuk o' Fife,aka. GS.083
M:2/2
L:1/8
Q:1/2=90
S:George Spencer m/s, Leeds,1831
R:.Scots Measure
O:England
A:Leeds
N:"America" is in a different handwriting. "G.S.L. 1831" is written on
N:the stave after the last double bar
H:1831
Z:vmp.Cherri Graebe
K:E minor
D | G2G2G2 Ac | dBdG dBdG | A2A2A2 gf | efge dBGB |!
dcBA GABc | dBGB d2 B2 | ABcA BcAB | G2 E2E2 :|!
|:dc | B2G2G2 dc | BcAB G2 ed | c2A2A2 ed | cdBc A2 dc |!
BGFG DGEG | DGFG d2B2 | ABcA BcAB | G2E2E2 :|!
|: ef | gfgd BcdB | gfgd BcdB | agae ^cdec | agae ^cdec |!
gfgd BcdB | efge dBGB | ABcA dcBA | G2E2E2 :|!
|:gf | egdg B[cg]d[Bg] |egdg Bgdg | eaca Aaca |eaca Aaca |!
egdg Bgdg | efge dBGB | ABcA dcBA | G2E2E2 ?

